X:2890
T:Jeg lagde meg s\aa silde
C:anon.
O:Norway
A:V\aag\aa
Z:Transcribed by Frank Nordberg - http://www.musicaviva.com
F:http://abc.musicaviva.com/tunes/norway/jeg-lagde-meg-saa/jeg-lagde-meg-saa-1.abc
M:2/4
L:1/8
Q:1/4=72
K:Dm
^G|(AA)A^c|d2df|(fe)(ec)|A3A|
w:Jeg lag-de meg s\aa sil-de alt sent_ om en kveld, jeg
w:S\aa kom_ der et bud i-fra kj\ae--res-ten min, jeg
(dd)cA|(BB)AF|G2A2-|A2 z:|z||
